X: 4437
T: Bonnie Dainty Davie
R: reel
M: 4/4
K: Gmajor
g|d>cBA GEG2|GdBd GdBg|d>cBA GEG2|Ggfd e2g:|
d|gbgb gbb(a/g/)|fdad faaf|g>abg agfd|egfd e2g:|

